X:408
T: MARSCHIEREN WIR IN DAS TUF[ERK1ISCHE LAND
N: E0335
O: Europa, Mitteleuropa, Deutschland, Franken; Oesterreich
R: historisches Lied, Krieg gegen die Tuerken (1789)
M: 6/8
L: 1/8
K: A
E | EAAA2B | AGFE2
E | Eccc2c | c2ec2
A | Accc2c | c2ec2
c | BBBeed | c2BA2
E | EAAA2B | AGFE2
E | Eccedc | B3A2

